src/assets/cloud-download.svg

<?xml version="1.0" encoding="UTF-8"?><!DOCTYPE svg PUBLIC "-//W3C//DTD SVG 1.1//EN" "http://www.w3.org/Graphics/SVG/1.1/DTD/svg11.dtd"><svg xmlns="http://www.w3.org/2000/svg" xmlns:xlink="http://www.w3.org/1999/xlink" version="1.1" width="24" height="24" viewBox="0 0 24 24"><path d="M17,13L12,18L7,13H10V9H14V13M19.35,10.03C18.67,6.59 15.64,4 12,4C9.11,4 6.6,5.64 5.35,8.03C2.34,8.36 0,10.9 0,14A6,6 0 0,0 6,20H19A5,5 0 0,0 24,15C24,12.36 21.95,10.22 19.35,10.03Z" /></svg>

<svg xmlns="http://www.w3.org/2000/svg" viewBox="0 0 24 24"><path d="m17 13-5 5-5-5h3V9h4v4m5.4-3a7.5 7.5 0 0 0-14-2A6 6 0 0 0 0 14a6 6 0 0 0 6 6h13a5 5 0 0 0 5-5 5 5 0 0 0-4.6-5Z"/></svg>
